!!!OTL: Treue Liebe (3-34), S. 87
!!!id: K1168
**kern
*clefG2
*k[b-]
*F:
{8cc
8cc
=1
4g
4g
4g
8g
8g
=2
4g
4cc
8cc
8b-}
=3
{8a
8g
=4
4f
4a
8a
8a
8a
8a
=5
4a
4dd
4cc}
=6
{8f
8f
=7
4g
4dd
4dd
4dd
=8
4dd
8cc
8b-
4a}
=9
{8cc
8dd
=10
4.cc
8b-
4b-
8cc
8b-
=11
2a}
4r
=12
{8f
8f
=13
4f
4dd
4dd
4dd
=14
4dd
8cc
8b-
4a}
=15
{8cc
8dd
=16
4.cc
8b-
4b-
8cc
8b-
=17
2a}
4r
==
*-
!!!minrhy: 8
!!!meters: 4/4 ]  ZZ[6
!!!cut: Treue Liebe (3-34), S. 87
!!!reg: Luxemburg
!!!trd: KINTZELE, Guillaume: An der Ucht, Bd. 3 Luxemburg 1928
!!!rhy1: XX  X_X_X_XX  X_X_XX
!!!rhy2: XX  X_X_XXXX  X_X_X_
!!!key: K1168  08  F 4/4 ]  ZZ[6
!!!mod: SECHSTONSKALA DUR ?]  AMBITUS[6
!!!kad: 453333
!!!akz: 2225_1335_2663_543_1663_543_
!!!fot: 'a__b__c__d__cw_d__
!!!for: 'a__b__c__d__c__d__
!!!fok: 'Vd_Va_^a_\__^a_\__
!! PHRAS[AUFTAKTIG]
!!!fkt: Treue, Tod
!!!bem: in der Quelle mit einer 2. Stimme versehen
!! KINTZELE
!! PR[6] 2K[11] 2G[5] 3K[2] 3G[2] 4A[6] 4Ü[0] 5A[5] 6K[2] 6G[5]
!! 7K[0] 7G[0] 8A[2] MEHR[0] SI[38] ABS[64] SR[16] SP[22]
!! ST[18] 2k[19] 2g[25] 3k[0] 3g[3] 4d[3] 4ü[0] 5d[2] 6k[2] 6g[2]
!! 7k[0] 7g[0] 8d[2] mehr[0] si[56] dm[-18] sr[44] sp[13]
!! 1F[22] 2F[50] 3F[6] 4F[0] LF[0] 2P[22] 3P[0] 4P[0] TRI[0] DF[4] AB[68]
!! TF[0] U3K[0] U3[3] U4[0] U4Ü[0] U5[12] U6K[2] U6[9] U7K[0] U7[9]
!! N1[17] N2K[2] N2[15] N3K[0] N3[22] N4[8] N4Ü[0] N5[0] N6K[0] N6[2]
!!!n7k: 0] N7[0] O1[0] O2K[0] O2[0] O3K[0] O3[0] HÖ[0
